X:457
T:Lea Rig, The
T:An Oidhche a Bha Bhainis Ann
R:Reel
B:The Athole Collection
M:C|
L:1/8
K:A
c|AFEF A2AB|A/B/c BA BFFB|AFEF A2Aa|f2ec eAA:|
|:a|f2 (ec efac|B/B/B (BA BFFB|1 AFEF A2 (Aa|f2 (ec eAA:|2
AFEF ABce|faea cAA|]

